korla/apps/scalable/inkscape.svg

<!DOCTYPE svg  PUBLIC '-//W3C//DTD SVG 1.1//EN'  'http://www.w3.org/Graphics/SVG/1.1/DTD/svg11.dtd'>
<svg style="clip-rule:evenodd;fill-rule:evenodd;stroke-linejoin:round;stroke-miterlimit:1.41421" version="1.1" viewBox="0 0 48 48" xmlns="http://www.w3.org/2000/svg">
 <g transform="matrix(1.24884 .000417396 -.000417396 1.24884 -6.51888 -6.39107)">
  <path d="m42.8 7.401c0-0.883-0.718-1.601-1.601-1.601h-33.798c-0.883 0-1.601 0.718-1.601 1.601v33.798c0 0.883 0.718 1.601 1.601 1.601h33.798c0.883 0 1.601-0.718 1.601-1.601v-33.798z" style="fill:url(#_Linear1)"/>
  <path d="m23.542 11.541c-0.779 0.02-1.542 0.324-2.081 0.903l-9.062 9.778c-3.434 3.617 2.367 3.171 4.503 4.449 0.989 0.607-3.08 1.528-2.222 2.342 0.836 0.814 4.947 1.475 5.781 2.268 0.836 0.814-1.605 1.759-0.77 2.574 0.813 0.815 2.691-0.024 3.079 1.865 0.286 1.394 3.5 0.609 4.915-0.626 0.884-0.792-1.58-0.728-0.788-1.585 1.98-2.109 3.818-1.027 4.514-2.945 0.381-1.027-3.12-1.659-2.21-2.338 2.174-1.617 10.291-2.62 6.441-6.273l-9.909-9.621c-0.614-0.549-1.411-0.811-2.191-0.791zm0.092 0.485c0.559-0.012 1.123 0.184 1.54 0.58l3.782 3.654c0.348 0.33 0.367 1.031 0.169 1.239l-1.869-1.443-0.305 2.2-1.536-0.773-2.422 1.622-0.899-3.254-1.238 2.88-3.277 0.064c-0.633 0.017-0.56-0.641 0.079-1.314 1.251-1.457 3.696-3.94 4.465-4.796 0.396-0.429 0.952-0.647 1.511-0.659zm10.75 17.319c-0.782 0.049-1.567 0.46-1.752 1.188 0.012 0.475 3.703 0.65 3.477-0.203-0.165-0.719-0.943-1.033-1.725-0.985zm-2.178 2.195c-1.015 0.976 0.231 1.938 1.231 1.256 0.266-0.187-0.05-1.061-1.231-1.256zm-13.67 0.275c-1.129-0.049-2.552 0.832-1.547 1.637 0.855 0.701 2.098-0.213 2.478-1.241-0.211-0.26-0.555-0.38-0.931-0.396z" style="fill-rule:nonzero;fill:url(#_Linear2)"/>
 </g>
 <defs>
  <linearGradient id="_Linear1" x2="1" gradientTransform="matrix(.270972 -36.939 36.939 .270972 23.6432 43.1566)" gradientUnits="userSpaceOnUse">
   <stop style="stop-color:rgb(149,169,187)" offset="0"/>
   <stop style="stop-color:rgb(185,199,213)" offset="1"/>
  </linearGradient>
  <linearGradient id="_Linear2" x2="1" gradientTransform="matrix(-.412893 -24.7382 24.7382 -.412893 24.4962 36.2821)" gradientUnits="userSpaceOnUse">
   <stop style="stop-color:rgb(30,38,48)" offset="0"/>
   <stop style="stop-color:rgb(68,77,84)" offset="1"/>
  </linearGradient>
 </defs>
</svg>

<?xml version="1.0" encoding="UTF-8" standalone="no"?>
<!DOCTYPE svg PUBLIC "-//W3C//DTD SVG 1.1//EN" "http://www.w3.org/Graphics/SVG/1.1/DTD/svg11.dtd">
<svg width="100%" height="100%" viewBox="0 0 48 48" version="1.1" xmlns="http://www.w3.org/2000/svg" xmlns:xlink="http://www.w3.org/1999/xlink" xml:space="preserve" xmlns:serif="http://www.serif.com/" style="fill-rule:evenodd;clip-rule:evenodd;stroke-linejoin:round;stroke-miterlimit:1.41421;">
    <g transform="matrix(1.24884,0.000417396,-0.000417396,1.24884,-6.51888,-6.39107)">
        <path d="M42.8,7.401C42.8,6.518 42.082,5.8 41.199,5.8L7.401,5.8C6.518,5.8 5.8,6.518 5.8,7.401L5.8,41.199C5.8,42.082 6.518,42.8 7.401,42.8L41.199,42.8C42.082,42.8 42.8,42.082 42.8,41.199L42.8,7.401Z" style="fill:url(#_Linear1);"/>
        <path d="M23.542,11.541C22.763,11.561 22,11.865 21.461,12.444L12.399,22.222C8.965,25.839 14.766,25.393 16.902,26.671C17.891,27.278 13.822,28.199 14.68,29.013C15.516,29.827 19.627,30.488 20.461,31.281C21.297,32.095 18.856,33.04 19.691,33.855C20.504,34.67 22.382,33.831 22.77,35.72C23.056,37.114 26.27,36.329 27.685,35.094C28.569,34.302 26.105,34.366 26.897,33.509C28.877,31.4 30.715,32.482 31.411,30.564C31.792,29.537 28.291,28.905 29.201,28.226C31.375,26.609 39.492,25.606 35.642,21.953L25.733,12.332C25.119,11.783 24.322,11.521 23.542,11.541ZM23.634,12.026C24.193,12.014 24.757,12.21 25.174,12.606L28.956,16.26C29.304,16.59 29.323,17.291 29.125,17.499L27.256,16.056L26.951,18.256L25.415,17.483L22.993,19.105L22.094,15.851L20.856,18.731L17.579,18.795C16.946,18.812 17.019,18.154 17.658,17.481C18.909,16.024 21.354,13.541 22.123,12.685C22.519,12.256 23.075,12.038 23.634,12.026L23.634,12.026ZM34.384,29.345C33.602,29.394 32.817,29.805 32.632,30.533C32.644,31.008 36.335,31.183 36.109,30.33C35.944,29.611 35.166,29.297 34.384,29.345ZM32.206,31.54C31.191,32.516 32.437,33.478 33.437,32.796C33.703,32.609 33.387,31.735 32.206,31.54ZM18.536,31.815C17.407,31.766 15.984,32.647 16.989,33.452C17.844,34.153 19.087,33.239 19.467,32.211C19.256,31.951 18.912,31.831 18.536,31.815Z" style="fill:url(#_Linear2);fill-rule:nonzero;"/>
    </g>
    <defs>
        <linearGradient id="_Linear1" x1="0" y1="0" x2="1" y2="0" gradientUnits="userSpaceOnUse" gradientTransform="matrix(0.270972,-36.939,36.939,0.270972,23.6432,43.1566)"><stop offset="0" style="stop-color:rgb(149,169,187);stop-opacity:1"/><stop offset="1" style="stop-color:rgb(185,199,213);stop-opacity:1"/></linearGradient>
        <linearGradient id="_Linear2" x1="0" y1="0" x2="1" y2="0" gradientUnits="userSpaceOnUse" gradientTransform="matrix(-0.412893,-24.7382,24.7382,-0.412893,24.4962,36.2821)"><stop offset="0" style="stop-color:rgb(30,38,48);stop-opacity:1"/><stop offset="1" style="stop-color:rgb(68,77,84);stop-opacity:1"/></linearGradient>
    </defs>
</svg>
